X: 88
T: Andıkça Geçen Günleri
C: Lem´i Atlı
O: Turkey
F: http://compmusic.upf.edu/node/140
N: sultaniyegah--sarki--sofyan--andikca_gecen--lemi_atli
N: makam= sultaniyegah
N: form= sarki
N: usul= sofyan = 4/4
M: 4/4
L: 1/16
K: C _B ^c  
Q: 1/4=72
%%MIDI tuningsystem comma53
d6c2 dedc d2e2  | f6ed d2z2 d4  | a6g2 fgfe f2g2  | 
w:  ARANAĞME  |   |   | 
a4 z8 a4  | d'6a2 b=c'ba g2b2  | abag f2a2 gagf e2d2  | 
w:   |   |   | 
g2f2 e2d2 c2d2 efed  | d8 z4 =c4  | d6=c2 B3/2c/BA B2_e2  | 
w:   |   |   | 
d2=c2 B2A2 G4 A4  | B6A2 B3/2=c/BA B2d2  | \
w:   |   | 
=c2B2 A2G2 F4 G4  | A6G2 F3/2G/FE F2B2  | 
w:   |   | 
A2G2 F2E2 D4 E2F2  | G2F2 E2D2 C2D2 E2C2  | \
w:   |   | 
D8 z4 A4  | d6c2 dedc d2e2  | 
w:   |  ARANAĞME  | 
f6ed d2z2 d4  | a6g2 fgfe f2g2  | a4 z8 a4  | \
w:   |   |   | 
d'6a2 b=c'ba g2b2  | 
w:   | 
abag f2a2 gagf e2d2  | g2f2 e2d2 c2d2 efed  | 
w:   |   | 
d8 z4 =c4  | d6=c2 B3/2c/BA B2_e2  | \
w:   |   | 
d2=c2 B2A2 G4 A4  | B6A2 B3/2=c/BA B2d2  | 
w:   |   | 
=c2B2 A2G2 F4 G4  | A6G2 F3/2G/FE F2B2  | \
w:   |   | 
A2G2 F2E2 D4 E2F2  | 
w:   | 
G2F2 E2D2 C2D2 E2C2  | D8 z4 A4  | d12 e2fe  | \
w:   |  *  An  |  dık ça  ge  | 
d8 z4 c2d2  | e6f2 e3d c2d2  | 
w:  çen  gün  |  *  *  *  *  *  le  | 
e4 ABcd e4 e2g2  | f6fe e3d g2fe  | e2d2 d2e2 d2cB c2d2  | 
w:  ri  SAZ *  *  *  *  has  |  ret *  *  *  *  le  de  |  rin  | 
c2d2 d2cB A4 A4  | d12 e2fe  | d8 z4 c2d2  | \
w:  den   *  *  SAZ *  *  An  |  dık ça  ge  |  çen  gün  | 
e6f2 e3d c2d2  | 
w:  *  *  *  *  *  le  | 
e4 ABcd e4 e2g2  | f6fe e3d g2fe  | e2d2 d2e2 d2cB c2d2  | 
w:  ri  SAZ *  *  *  *  has  |  ret *  *  *  *  le  de  |  rin  | 
c2d2 GAB=c d4 c3d  | d6d=c c2B2 f2_ed  | \
w:  den   *  *  *  *  *  *  Vî  |  ran  *  *  *  *  o lu  | 
d3=c cBBA B4 A2c2  | 
w:  yor  *  *  *  *  *  *  gön  | 
B2A4G2 G2AG F2GA  | G2A8-A2 E3G  | F6FE E3D G2FE  | 
w:  *  *  *  lüm  *  *  i  |  lâ *  hî   |  *  *  *  *  *  ke de  | 
E3D C2D2 C2D2 E2{F}ED  | D4 GAB=c d2z2 c3d  | \
w:  rin  |  den   SAZ *  *  *  *  Vî  | 
d6d=c c2B2 f2_ed  | 
w:  ran  *  *  *  *  o lu  | 
d3=c cBBA B4 A2c2  | B2A4G2 G2AG F2GA  | \
w:  yor  *  *  *  *  *  *  gön  |  *  *  *  lüm  *  *  i  | 
G2A8-A2 E3G  | 
w:  lâ *  hî   | 
F6FE E3D G2FE  | E3D C2D2 C2D2 E2{F}ED  | \
w:  *  *  *  *  *  ke de  |  rin  | 
D4 defg a2z2 g3a  | 
w:  den   SAZ *  *  *  *  Bak   | 
a12 =c'2ba  | a8 z4 f2_7/8g2  | _7/8g2f4_1/4e2 a2gf feed  | \
w:  yâ re le  |  din  kal  |  *  *  *  *  *  *  *  *  bi  | 
d8 z4 e2g2  | 
w:  mi  en   | 
f6fe e3d g2fe  | e3d d2e2 d2cB c2d2  | \
w:  giz *  *  *  *  li  ye  |  rin  | 
c2d2 defg a2z2 g3a  | 
w:  den   *  SAZ *  *  *  *  Bak   | 
a12 =c'2ba  | a8 z4 f2_7/8g2  | _7/8g2f4_1/4e2 a2gf feed  | \
w:  yâ re le  |  din  kal  |  *  *  *  *  *  *  *  *  bi  | 
d8 z4 e2g2  | 
w:  mi  en   | 
f6fe e3d g2fe  | e3d d2e2 d2cB c2d2  | \
w:  giz *  *  *  *  li  ye  |  rin  | 
c2d2 GAB=c d2z2 c3d  | 
w:  den   *  SAZ *  *  *  *  Vî  | 
d6d=c c2B2 f2_ed  | d3=c cBBA B4 A2c2  | \
w:  ran  *  *  *  *  o lu  |  yor  *  *  *  *  *  *  gön  | 
B2A4G2 G2AG F2GA  | 
w:  *  *  *  lüm  *  *  i  | 
G2A8-A2 E3G  | F6FE E3D G2FE  | E3D C2D2 C2D2 E2{F}ED  | 
w:  lâ *  hî   |  *  *  *  *  *  ke de  |  rin  | 
D4 GAB=c d2z2 c3d  | d6d=c c2B2 f2_ed  | \
w:  den   SAZ *  *  *  *  Vî  |  ran  *  *  *  *  o lu  | 
d3=c cBBA B4 A2c2  | 
w:  yor  *  *  *  *  *  *  gön  | 
B2A4G2 G2AG F2GA  | G2A8-A2 E3G  | F6FE E3D G2FE  | 
w:  *  *  *  lüm  *  *  i  |  lâ *  hî   |  *  *  *  *  *  ke de  | 
E3D C2D2 C2D2 E2{F}ED  | D4 |
w:  rin  |  den    | 


